X: 5
T: The Abbey
R: reel
M: 4/4
L: 1/8
K: Dmix
|: A3 (BA2) GE | A2 GABd3 | A3 (BA2) GE |GEDE GAdB :|| efge a4 | gabg aged |efge a2ga | b2af fgfd || efge agbg | agbg ageg |d^deg a4 | agef gedc ||: A3 (BA2) GE | A2 GABd3 | A3 (BA2) GE |GEDE GAdB :|| efge a4 | gabg aged |efge a2ga | b2af fgfd || efge agbg | agbg ageg |dege a2ge | gfeg fdcB||: A3 (BA2) GE | A2 GABd3 | A3 (BA2) GE |GEDE GAdB :|| efge a4 | gabg aged |efge a2ga | b2af fgfd || efge agbg | agbg ageg |dege a2ga | bgaf gedB|


Tune 477	Setting 13370

